packages/foundations/assets/icons/functional/images/maps/location_crosshairs_16.svg

<svg width="16" height="16" viewBox="0 0 16 16" fill="none" xmlns="http://www.w3.org/2000/svg">
<g clip-path="url(#clip0_186_50)">
<path fill-rule="evenodd" clip-rule="evenodd" d="M8 1.49841C8.45714 1.49841 8.8127 1.85397 8.8127 2.31111V3.14917C10.8698 3.5048 12.4952 5.1302 12.8508 7.1873H13.6889C14.1715 7.1873 14.5016 7.54286 14.5016 8C14.5016 8.43171 14.1715 8.8127 13.6889 8.8127H12.8508C12.4952 10.8698 10.8698 12.4952 8.8127 12.8254V13.6889C8.8127 14.146 8.45714 14.5016 8 14.5016C7.54286 14.5016 7.1873 14.146 7.1873 13.6889V12.8254C5.1302 12.4952 3.5048 10.8698 3.14917 8.8127H2.31111C1.93012 8.8127 1.49841 8.53329 1.49841 8C1.49841 7.54286 1.87941 7.1873 2.31111 7.1873H3.14917C3.5048 5.1302 5.1302 3.5048 7.1873 3.14917V2.31111C7.1873 1.85397 7.54286 1.49841 8 1.49841ZM8 4.74921C6.19679 4.74921 4.74921 6.19679 4.74921 8C4.74921 9.80322 6.19679 11.2508 8 11.2508C9.80322 11.2508 11.2508 9.80322 11.2508 8C11.2508 6.19679 9.80322 4.74921 8 4.74921ZM6.3746 8C6.3746 8.88893 7.11107 9.6254 8 9.6254C8.88893 9.6254 9.6254 8.88893 9.6254 8C9.6254 7.11107 8.88893 6.3746 8 6.3746C7.11107 6.3746 6.3746 7.11107 6.3746 8Z" fill="#1A1C1F"/>
</g>
<defs>
<clipPath id="clip0_186_50">
<rect width="16" height="16" fill="white"/>
</clipPath>
</defs>
</svg>

<svg xmlns="http://www.w3.org/2000/svg" width="16" height="16" fill="none"><g clip-path="url(#a)"><path fill="#1A1C1F" fill-rule="evenodd" d="M8 1.498c.457 0 .813.356.813.813v.838a4.97 4.97 0 0 1 4.038 4.038h.838c.482 0 .813.356.813.813 0 .432-.33.813-.813.813h-.838c-.356 2.057-1.981 3.682-4.038 4.012v.864a.8.8 0 0 1-.813.813.8.8 0 0 1-.813-.813v-.864c-2.057-.33-3.682-1.955-4.038-4.012h-.838c-.38 0-.813-.28-.813-.813 0-.457.381-.813.813-.813h.838A4.97 4.97 0 0 1 7.187 3.15v-.838c0-.457.356-.813.813-.813M8 4.75A3.24 3.24 0 0 0 4.75 8 3.24 3.24 0 0 0 8 11.25 3.24 3.24 0 0 0 11.25 8 3.24 3.24 0 0 0 8 4.75M6.375 8c0 .889.736 1.625 1.625 1.625S9.625 8.89 9.625 8 8.89 6.375 8 6.375 6.375 7.11 6.375 8" clip-rule="evenodd"/></g><defs><clipPath id="a"><path fill="#fff" d="M0 0h16v16H0z"/></clipPath></defs></svg>
